symbols/web/local_gas_station/materialsymbolsrounded/local_gas_station_wght200gradN25fill1_40px.svg

<svg xmlns="http://www.w3.org/2000/svg" height="40" width="40"><path d="M9.625 33.208q-.542 0-.854-.312-.313-.313-.313-.854V9.125q0-.958.688-1.646.687-.687 1.646-.687h8.291q1 0 1.688.687.687.688.687 1.646v10.042h1.792q.958 0 1.646.708.687.708.687 1.625v8.083q0 .959.688 1.625.687.667 1.687.667.959 0 1.646-.667.688-.666.688-1.625V18.167q-.417.25-.854.395-.438.146-.896.146-1.25 0-2.125-.896-.875-.895-.875-2.145 0-1.125.687-1.959.688-.833 1.771-1.041L24.333 9q-.208-.208-.208-.458t.208-.459q.209-.208.479-.208.271 0 .48.208l5.25 5.292q.458.458.75 1.063.291.604.291 1.229v13.875q0 1.541-1.041 2.604-1.042 1.062-2.584 1.062-1.541 0-2.604-1.062-1.062-1.063-1.062-2.604V21.5q0-.417-.292-.708-.292-.292-.75-.292h-1.792v11.542q0 .541-.333.854-.333.312-.833.312Zm.167-15.583h10.333V9.167q0-.417-.313-.729-.312-.313-.729-.313h-8.25q-.416 0-.729.313-.312.312-.312.729Zm18.791-.25q.667 0 1.167-.5t.5-1.208q0-.709-.5-1.209-.5-.5-1.208-.5-.709 0-1.209.521-.5.521-.5 1.188 0 .708.5 1.208t1.25.5Z"/></svg>

<svg xmlns="http://www.w3.org/2000/svg" height="40" width="40"><path d="M9.625 33.208Q9.083 33.208 8.771 32.896Q8.458 32.583 8.458 32.042V9.125Q8.458 8.167 9.146 7.479Q9.833 6.792 10.792 6.792H19.083Q20.083 6.792 20.771 7.479Q21.458 8.167 21.458 9.125V19.167H23.25Q24.208 19.167 24.896 19.875Q25.583 20.583 25.583 21.5V29.583Q25.583 30.542 26.271 31.208Q26.958 31.875 27.958 31.875Q28.917 31.875 29.604 31.208Q30.292 30.542 30.292 29.583V18.167Q29.875 18.417 29.438 18.562Q29 18.708 28.542 18.708Q27.292 18.708 26.417 17.812Q25.542 16.917 25.542 15.667Q25.542 14.542 26.229 13.708Q26.917 12.875 28 12.667L24.333 9Q24.125 8.792 24.125 8.542Q24.125 8.292 24.333 8.083Q24.542 7.875 24.812 7.875Q25.083 7.875 25.292 8.083L30.542 13.375Q31 13.833 31.292 14.438Q31.583 15.042 31.583 15.667V29.542Q31.583 31.083 30.542 32.146Q29.5 33.208 27.958 33.208Q26.417 33.208 25.354 32.146Q24.292 31.083 24.292 29.542V21.5Q24.292 21.083 24 20.792Q23.708 20.5 23.25 20.5H21.458V32.042Q21.458 32.583 21.125 32.896Q20.792 33.208 20.292 33.208ZM9.792 17.625H20.125V9.167Q20.125 8.75 19.812 8.438Q19.5 8.125 19.083 8.125H10.833Q10.417 8.125 10.104 8.438Q9.792 8.75 9.792 9.167ZM28.583 17.375Q29.25 17.375 29.75 16.875Q30.25 16.375 30.25 15.667Q30.25 14.958 29.75 14.458Q29.25 13.958 28.542 13.958Q27.833 13.958 27.333 14.479Q26.833 15 26.833 15.667Q26.833 16.375 27.333 16.875Q27.833 17.375 28.583 17.375Z"/></svg>
